img/home.svg

<svg width="92" height="92" viewBox="0 0 92 92" fill="none" xmlns="http://www.w3.org/2000/svg">
<circle cx="46" cy="46" r="45" stroke="#EBC317" stroke-width="2"/>
<path d="M70 63.4985C70 60.1614 67.2851 57.4466 63.9481 57.4466C62.7401 57.4466 61.6145 57.8038 60.6689 58.416V45.0753L63.6116 47.3985L65.3544 45.191L58.9485 40.1337V29.625L50.0052 29.6368L49.999 33.0683L45.8812 29.8175L26.5872 45.415L28.3552 47.6022L31.3352 45.1931V58.4187C30.3888 57.8048 29.2617 57.4466 28.0519 57.4466C24.7149 57.4467 22 60.1615 22 63.4985V67.979H22.0292V68H69.9709V67.979H70V63.4985ZM60.7088 63.4985C60.7088 61.7122 62.162 60.2591 63.9482 60.2591C65.7345 60.2591 67.1875 61.7123 67.1875 63.4985V65.1665H60.7088V63.4985ZM52.8126 32.4457L56.136 32.4412V37.9133L52.8075 35.2856L52.8126 32.4457ZM45.9021 33.4173L57.8565 42.8549V65.1875H51.9665V51.4839H40.0335V65.1875H34.1478V42.9195L45.9021 33.4173ZM42.846 65.1354V54.2964H49.1539V65.1354H42.846ZM24.8125 63.4985C24.8125 61.7122 26.2657 60.2591 28.0519 60.2591C29.8382 60.2591 31.2914 61.7122 31.2914 63.4985V65.1665H24.8125V63.4985Z" fill="#EBC317"/>
<path d="M46 45.8622C48.3396 45.8622 50.243 43.9588 50.243 41.6192C50.243 39.2795 48.3396 37.3762 46 37.3762C43.6604 37.3762 41.757 39.2796 41.757 41.6193C41.757 43.9589 43.6604 45.8622 46 45.8622ZM46 40.1887C46.7888 40.1887 47.4305 40.8304 47.4305 41.6193C47.4305 42.4081 46.7888 43.0498 46 43.0498C45.2112 43.0498 44.5695 42.4081 44.5695 41.6193C44.5695 40.8304 45.2112 40.1887 46 40.1887Z" fill="#EBC317"/>
<path d="M30.5418 35.2486L37.5087 28.1433C39.3577 26.2575 39.3278 23.2189 37.4421 21.3697C36.54 20.4853 35.3514 20 34.0899 20C34.0739 20 34.0576 20.0001 34.0415 20.0003C32.7621 20.0128 31.5642 20.5228 30.6685 21.4363L30.4085 21.7016L30.1433 21.4416C28.2576 19.5925 25.219 19.6223 23.3697 21.5082C22.474 22.4217 21.9876 23.6293 22.0003 24.9088C22.0129 26.1881 22.5229 27.386 23.4364 28.2817L30.5418 35.2486ZM25.3779 23.4773C25.7646 23.083 26.2772 22.8852 26.79 22.8852C27.2899 22.8852 27.79 23.0731 28.1742 23.4497L30.4476 25.6788L32.6766 23.4055C33.0464 23.0284 33.541 22.8177 34.0692 22.8126C34.0758 22.8126 34.0825 22.8125 34.0892 22.8125C34.61 22.8125 35.1006 23.0129 35.473 23.3779C36.2515 24.1413 36.2639 25.3957 35.5006 26.1742L30.5026 31.2714L25.4055 26.2736C25.0284 25.9038 24.8178 25.4092 24.8126 24.881C24.8075 24.353 25.0083 23.8543 25.3779 23.4773Z" fill="#EBC317"/>
</svg>

<svg width="92" height="92" fill="none" xmlns="http://www.w3.org/2000/svg"><circle cx="46" cy="46" r="45" stroke="#EBC317" stroke-width="2"/><path d="M70 63.498a6.059 6.059 0 0 0-6.052-6.051 6.015 6.015 0 0 0-3.28.969v-13.34l2.944 2.322 1.742-2.207-6.405-5.057V29.625l-8.944.012L50 33.068l-4.118-3.25-19.294 15.597 1.768 2.187 2.98-2.409V58.42a6.014 6.014 0 0 0-3.283-.972A6.059 6.059 0 0 0 22 63.498v4.481h.03V68h47.94v-.021H70v-4.48zm-9.291 0a3.243 3.243 0 0 1 3.24-3.239 3.243 3.243 0 0 1 3.239 3.24v1.667h-6.48V63.5zm-7.896-31.052 3.323-.005v5.472l-3.329-2.627.006-2.84zm-6.91.971 11.953 9.438v22.333h-5.89V51.483H40.034v13.703h-5.885V42.92l11.754-9.503zm-3.057 31.718V54.296h6.308v10.84h-6.308zm-18.033-1.637a3.243 3.243 0 0 1 3.239-3.239 3.243 3.243 0 0 1 3.24 3.24v1.667h-6.48V63.5z" fill="#EBC317"/><path d="M46 45.862a4.248 4.248 0 0 0 4.243-4.243A4.248 4.248 0 0 0 46 37.376a4.248 4.248 0 0 0-4.243 4.243A4.248 4.248 0 0 0 46 45.862zm0-5.673c.789 0 1.43.641 1.43 1.43 0 .79-.641 1.43-1.43 1.43-.789 0-1.43-.64-1.43-1.43 0-.789.641-1.43 1.43-1.43zM30.542 35.249l6.967-7.106a4.796 4.796 0 0 0-.067-6.773 4.758 4.758 0 0 0-3.4-1.37 4.758 4.758 0 0 0-3.373 1.436l-.26.266-.266-.26a4.795 4.795 0 0 0-6.773.066 4.758 4.758 0 0 0-1.37 3.4 4.759 4.759 0 0 0 1.436 3.374l7.106 6.967zm-5.164-11.772c.387-.394.9-.592 1.412-.592.5 0 1 .188 1.384.565l2.274 2.229 2.229-2.273c.37-.378.864-.588 1.392-.593h.02c.521 0 1.012.2 1.384.565a1.98 1.98 0 0 1 .028 2.796l-4.998 5.097-5.098-4.997a1.965 1.965 0 0 1-.592-1.393 1.965 1.965 0 0 1 .565-1.404z" fill="#EBC317"/></svg>
